assets/drawable/instagram.svg

<svg height="512" width="512" xmlns="http://www.w3.org/2000/svg"><path d="m352 0h-192c-88.352 0-160 71.648-160 160v192c0 88.352 71.648 160 160 160h192c88.352 0 160-71.648 160-160v-192c0-88.352-71.648-160-160-160zm112 352c0 61.76-50.24 112-112 112h-192c-61.76 0-112-50.24-112-112v-192c0-61.76 50.24-112 112-112h192c61.76 0 112 50.24 112 112z"/><path d="m256 128c-70.688 0-128 57.312-128 128s57.312 128 128 128 128-57.312 128-128-57.312-128-128-128zm0 208c-44.096 0-80-35.904-80-80 0-44.128 35.904-80 80-80s80 35.872 80 80c0 44.096-35.904 80-80 80z"/><path d="m376.544 118.4a17.056 17.056 0 1 1 34.112 0 17.056 17.056 0 1 1 -34.112 0"/></svg>

<?xml version="1.0" encoding="UTF-8" standalone="no"?><svg xmlns:aapt="http://schemas.android.com/aapt" xmlns:android="http://schemas.android.com/apk/res/android" height="512" width="512" xmlns="http://www.w3.org/2000/svg">
  <path d="M352,0H160C71.648,0 0,71.648 0,160v192c0,88.352 71.648,160 160,160h192c88.352,0 160,-71.648 160,-160V160C512,71.648 440.352,0 352,0zM464,352c0,61.76 -50.24,112 -112,112H160c-61.76,0 -112,-50.24 -112,-112V160C48,98.24 98.24,48 160,48h192c61.76,0 112,50.24 112,112V352z">
    <aapt:attr name="android:fillColor" xmlns:aapt="http://www.w3.org/2000/svg">
      <gradient android:endX="465.1312" android:endY="46.8656" android:startX="46.8688" android:startY="465.1344" android:type="linear">
        <item android:color="#FFFFC107" android:offset="0"/>
        <item android:color="#FFF44336" android:offset="0.507"/>
        <item android:color="#FF9C27B0" android:offset="0.99"/>
      </gradient>
    </aapt:attr>
  </path>
  <path d="M256,128c-70.688,0 -128,57.312 -128,128s57.312,128 128,128s128,-57.312 128,-128S326.688,128 256,128zM256,336c-44.096,0 -80,-35.904 -80,-80c0,-44.128 35.904,-80 80,-80s80,35.872 80,80C336,300.096 300.096,336 256,336z">
    <aapt:attr name="android:fillColor" xmlns:aapt="http://www.w3.org/2000/svg">
      <gradient android:endX="346.5072" android:endY="165.4928" android:startX="165.4928" android:startY="346.5072" android:type="linear">
        <item android:color="#FFFFC107" android:offset="0"/>
        <item android:color="#FFF44336" android:offset="0.507"/>
        <item android:color="#FF9C27B0" android:offset="0.99"/>
      </gradient>
    </aapt:attr>
  </path>
  <path d="M393.6,118.4m-17.056,0a17.056,17.056 0,1 1,34.112 0a17.056,17.056 0,1 1,-34.112 0">
    <aapt:attr name="android:fillColor" xmlns:aapt="http://www.w3.org/2000/svg">
      <gradient android:endX="405.6592" android:endY="106.3408" android:startX="381.5408" android:startY="130.4624" android:type="linear">
        <item android:color="#FFFFC107" android:offset="0"/>
        <item android:color="#FFF44336" android:offset="0.507"/>
        <item android:color="#FF9C27B0" android:offset="0.99"/>
      </gradient>
    </aapt:attr>
  </path>
</svg>
